X:908
T:Reel 908
M:4/4
K:Dmaj
L:1/8
d>D (3DCD F>A (3ABc |dfaf gece|d>D (3DDD F>A (3Acc ||dceg fddA:||2 (3ged ec d2|Ad (3ddd d2|dfed  (3fgf df| (3cde  (3ccc de (3ecc |dfed cdAc| (3Bcd  (3cde fdBc|df (3cBA BGAF|DFEF GBAG|
